X: 540
T: Miss Maxwell's Reel
%R: reel
B: "Twenty Four Country Dances for the Year 1805", Tho. Preston, ed. p.230 #2
F: http://folkopedia.efdss.org/images/archive/0/02/20121211105513%21Preston_24_1805.PDF
Z: 2014 John Chambers <jc:trillian.mit.edu>
M: C|
L: 1/8
K: A
e |\
c2Ac efec | Aa (b/a/).g/.a/ bBBe |\
c2Ac eaec | dBeB cAA :|
|: E |\
C/B,/A, EA, FA,EA, | C/B,/A, EA, FB,B,E |\
C/B,/A, EA, FA,EA, | EAGB cAA :|
%%begintext align
%% 1st and 2d Cu. set and half right and left,
%% back again. lead down the middle up again
%% poussette with the 2d Cu.
%%endtext

%%sep 1 1 500
%%sep 1 1 500
